X:948
T:Sutherland My Home
C:Joe Buchanan's Scottish Tome - Page 552.0
I:552 0
Z:Carl Allison
C:Andrew I. Dunbar
R:Waltz
L:1/4
M:3/4
K:A
E | "A"A2 B | c2 f | e2 d | c2 A/G/ | "D"F2 B | A2 F | "A"E3- | E2 E | 
"D"F2 G | A2 F | "A"E A2 | c2 A/c/ | e2 f | e2 c | "Bm7"B3- | "E7"B2 A |
"A"c2 f | e2 d | "A"e2 A | E2 A/G/ | "D"F2 B | A2 F | "A"E3- | E2 E | 
c2 d | e2 E | "D"F A2- | A G F | "A"E2 c | e c2 | "Bm7"B3- | "E7"B2 A |
"A"c2 d | e2 A | "D"f2 e | d2 c | "E7"E G2 | c2 B | "A"A3 | A2 z |]

